X: 35512
T: Rufus' Request
R: jig
M: 6/8
K: Gmajor
|:G2g fgd-|dcB cBG|A2B GDB,|CDA,- A,2G,|
F2G E2D|FGD ADB|c2d BAG|1 A3 AGF:|2 A3 AGB||
|:d3 BAG|ABG- G3|d3 cdB-|B2B AGD|
E3 EDC|B,DF G2G,|A,G,A, B,A,B,|CB,C DFA:|
|:c2g fgd-|d2a gae-|e2b ad'c'|b2g dBG|
e2d c2B|ABG ADB|c2d BAG|1 A3 AGB:|2 A3 AGF||

